img/eco-mail.svg

<svg width="221" height="67" viewBox="0 0 221 67" fill="none" xmlns="http://www.w3.org/2000/svg">
<path d="M61.9805 40.3784C60.8195 44.0309 58.3867 47.1487 55.1218 49.1681C51.8569 51.1876 47.9754 51.9756 44.1788 51.3897C40.3822 50.8039 36.921 48.8827 34.4207 45.9735C31.9205 43.0644 30.5462 39.3591 30.5462 35.5275C30.5462 31.6958 31.9205 27.9905 34.4207 25.0814C36.921 22.1722 40.3822 20.2511 44.1788 19.6652C47.9754 19.0793 51.8569 19.8673 55.1218 21.8868C58.3867 23.9062 60.8195 27.024 61.9805 30.6765L62.0595 30.9336H64.4901C64.3585 30.22 64.2901 29.9576 64.2901 29.9576C62.9622 25.7792 60.1877 22.2081 56.4625 19.8825C52.7372 17.5569 48.3042 16.6284 43.9557 17.263C39.6072 17.8976 35.6267 20.054 32.7258 23.3467C29.8248 26.6393 28.1925 30.8536 28.1206 35.2362V35.761C28.1842 40.1466 29.8106 44.3665 32.7086 47.6655C35.6067 50.9645 39.5873 53.1272 43.938 53.7665C48.2887 54.4059 52.7255 53.4802 56.4544 51.1551C60.1833 48.83 62.961 45.2573 64.2901 41.0763C64.3892 40.754 64.47 40.4264 64.5321 40.0951H62.0595L61.9805 40.3784Z" fill="#9F9CA9"/>
<path d="M35.1967 44.4078C31.255 44.317 27.3388 45.061 23.7066 46.5906C20.174 48.0907 16.3598 48.8172 12.5216 48.721C8.67363 48.825 4.84822 48.102 1.30514 46.6011L1 46.4647V47.3934C4.63189 48.9241 8.5483 49.6682 12.4901 49.5763C16.4319 49.6682 20.3483 48.9241 23.9801 47.3934L23.8328 46.9947L24.0012 47.3882C27.5381 45.8912 31.3558 45.1683 35.1967 45.2683C39.0366 45.1714 42.8527 45.8979 46.3868 47.3987L46.692 47.5089V46.5959C43.0583 45.0645 39.1404 44.3187 35.1967 44.4078Z" fill="#9F9CA9"/>
<path d="M23.6961 50.0228C20.1632 51.522 16.3492 52.2484 12.5111 52.1532C8.66634 52.2529 4.84491 51.5282 1.30514 50.0281L1 49.8969V50.8256C4.63182 52.3571 8.54801 53.1028 12.4901 53.0137C16.4322 53.1039 20.3487 52.3581 23.9801 50.8256L23.8276 50.4268L23.9959 50.8204C27.5337 49.3199 31.3535 48.5952 35.1967 48.6953C39.0308 48.6002 42.841 49.3248 46.3711 50.8204L46.6762 50.9358V50.0228C43.048 48.491 39.1356 47.7435 35.1967 47.8295C31.2551 47.7398 27.3391 48.4838 23.7066 50.0123" fill="#9F9CA9"/>
<path d="M23.6961 53.4479C20.1627 54.9449 16.3488 55.6696 12.5111 55.573C8.66663 55.6755 4.84497 54.9526 1.30514 53.4531L1 53.322V54.2507C4.63182 55.7821 8.54801 56.5279 12.4901 56.4388C16.4321 56.5279 20.3483 55.7821 23.9801 54.2507L23.8276 53.8519L23.9959 54.2455C27.534 52.7459 31.3536 52.0212 35.1967 52.1204C39.0366 52.0234 42.8527 52.7499 46.3868 54.2507L46.692 54.3609V53.4531C43.0585 51.921 39.1405 51.1752 35.1967 51.2651C31.255 51.1752 27.3391 51.9192 23.7066 53.4479" fill="#9F9CA9"/>
<path d="M23.6961 56.8746C20.1586 58.3769 16.3388 59.1035 12.4953 59.005C8.65576 59.1036 4.83971 58.3789 1.30514 56.8799L1 56.7487V57.6775C4.63259 59.2059 8.5485 59.9498 12.4901 59.8603C16.4317 59.95 20.3476 59.206 23.9801 57.6775L23.8328 57.2734L24.0012 57.667C27.5381 56.1701 31.3558 55.4472 35.1967 55.5471C39.0366 55.4502 42.8527 56.1766 46.3868 57.6775L46.692 57.7877V56.8799C43.0585 55.3477 39.1405 54.602 35.1967 54.6918C31.2551 54.6022 27.3391 55.3461 23.7066 56.8746" fill="#9F9CA9"/>
<path d="M23.6961 63.7275C20.1632 65.2266 16.3492 65.953 12.5111 65.8578C8.66633 65.9577 4.84486 65.233 1.30514 63.7327L1 63.6015V64.5303C4.63345 66.0624 8.55151 66.8082 12.4953 66.7183C16.4374 66.8075 20.3536 66.0617 23.9854 64.5303L23.8328 64.1315L24.0012 64.525C27.5374 63.0253 31.3553 62.3006 35.1967 62.3999C39.0366 62.303 42.8527 63.0295 46.3868 64.5303L46.692 64.6405V63.7275C43.0581 62.1971 39.1401 61.4531 35.1967 61.5446C31.255 61.4548 27.3391 62.1987 23.7066 63.7275" fill="#9F9CA9"/>
<path d="M46.613 59.6351C41.8318 59.6351 37.1579 58.221 33.1825 55.5717C29.207 52.9224 26.1085 49.1568 24.2788 44.7511C22.4491 40.3455 21.9704 35.4976 22.9031 30.8206C23.8359 26.1436 26.1383 21.8475 29.5192 18.4756C32.9 15.1036 37.2075 12.8073 41.8968 11.877C46.5862 10.9467 51.4469 11.4241 55.8642 13.249C60.2815 15.0739 64.057 18.1642 66.7133 22.1292C69.3696 26.0942 70.7874 30.7557 70.7874 35.5244C70.7805 41.9168 68.2313 48.0454 63.6992 52.5656C59.1672 57.0857 53.0223 59.6281 46.613 59.6351ZM46.613 9C41.3531 9 36.2114 10.5556 31.8379 13.4702C27.4645 16.3847 24.0558 20.5272 22.043 25.3739C20.0301 30.2206 19.5034 35.5538 20.5296 40.699C21.5557 45.8443 24.0886 50.5705 27.8079 54.28C31.5272 57.9895 36.2659 60.5157 41.4247 61.5391C46.5835 62.5626 51.9308 62.0373 56.7903 60.0297C61.6498 58.0222 65.8033 54.6225 68.7255 50.2605C71.6478 45.8986 73.2075 40.7704 73.2075 35.5244C73.1992 28.4922 70.3946 21.7505 65.4089 16.778C60.4233 11.8055 53.6638 9.00833 46.613 9" fill="#9F9CA9"/>
<path d="M46.9919 28.4667C48.5775 28.4674 50.1169 28.9989 51.3637 29.976C52.6104 30.953 53.4923 32.3192 53.8681 33.8555H40.1158C40.4924 32.3196 41.3745 30.954 42.621 29.9771C43.8676 29.0002 45.4066 28.4684 46.9919 28.4667ZM56.4618 34.9994C56.339 32.7628 55.4258 30.6418 53.8842 29.0129C52.3427 27.3839 50.2724 26.3522 48.0407 26.1009C45.809 25.8495 43.5601 26.3948 41.6932 27.6399C39.8262 28.885 38.4618 30.7494 37.8421 32.9024C37.2223 35.0554 37.3873 37.3578 38.3077 39.401C39.2281 41.4442 40.8444 43.0962 42.87 44.0639C44.8955 45.0316 47.1992 45.2523 49.3724 44.687C51.5456 44.1217 53.4477 42.8069 54.7414 40.9759C55.0982 40.4726 55.3998 39.9325 55.641 39.365H52.9316L52.779 39.5854C51.9544 40.768 50.7867 41.6705 49.4327 42.1719C48.0788 42.6733 46.6034 42.7494 45.2048 42.3901C43.8062 42.0308 42.5513 41.2533 41.6087 40.1619C40.6661 39.0706 40.0808 37.7177 39.9316 36.2849H56.5249C56.4933 35.7602 56.4512 35.0099 56.4512 35.0099" fill="#9F9CA9"/>
<path d="M12.4953 63.2916C8.55151 63.3815 4.63345 62.6357 1 61.1035L1 60.1748L1.30514 60.306C4.83769 61.8061 8.65188 62.5325 12.4901 62.4363C16.3278 62.5329 20.1417 61.8083 23.675 60.3112C27.3162 58.7736 31.2436 58.026 35.1967 58.1179C39.1405 58.028 43.0585 58.7738 46.692 60.306V61.219L46.3868 61.1088C42.8531 59.6062 39.037 58.8779 35.1967 58.9732C31.3606 58.8761 27.5483 59.6008 24.017 61.0983L23.8486 60.7048L24.0012 61.1035C20.3694 62.635 16.4532 63.3807 12.5111 63.2916" fill="#9F9CA9"/>
<path d="M86.0601 44.2557V27.958H97.6185V31.0119H89.5323V34.4592H97.4502V37.5078H89.5323V41.2018H97.6185V44.2557H86.0601Z" fill="#9F9CA9"/>
<path d="M102.201 36.117C102.201 31.106 106 27.6849 110.898 27.6849C112.297 27.6439 113.68 27.9954 114.889 28.6995C116.098 29.4035 117.085 30.4318 117.737 31.6674L114.743 33.1366C114.376 32.4326 113.825 31.8405 113.148 31.4231C112.471 31.0056 111.693 30.7782 110.898 30.7649C107.936 30.7649 105.779 33.037 105.779 36.117C105.779 39.1971 107.936 41.4691 110.898 41.4691C111.694 41.4598 112.473 41.234 113.151 40.8162C113.828 40.3983 114.379 39.8041 114.743 39.0974L117.732 40.5404C117.078 41.7767 116.092 42.8066 114.884 43.5139C113.675 44.2213 112.293 44.578 110.892 44.544C105.994 44.544 102.196 41.1228 102.196 36.117" fill="#9F9CA9"/>
<path d="M135.156 36.1177C135.156 33.0639 133.199 30.7656 130.179 30.7656C127.159 30.7656 125.228 33.0639 125.228 36.1177C125.228 39.1716 127.17 41.4698 130.179 41.4698C133.188 41.4698 135.156 39.1506 135.156 36.1177ZM121.656 36.1177C121.656 31.2064 125.255 27.6855 130.179 27.6855C135.103 27.6855 138.734 31.2011 138.734 36.1177C138.734 41.0343 135.156 44.5447 130.2 44.5447C125.244 44.5447 121.677 41.0238 121.677 36.1177" fill="#9F9CA9"/>
<path d="M149.829 35.9023H143.953V38.5417H149.829V35.9023Z" fill="#9F9CA9"/>
<path d="M170.016 44.2557V32.8431L165.412 44.2557H163.892L159.283 32.8431V44.2557H155.806V27.958H160.683L164.649 37.8017L168.622 27.958H173.52V44.2557H170.016Z" fill="#9F9CA9"/>
<path d="M186.651 31.4264L184.083 38.4366H189.181L186.651 31.4264ZM191.159 44.2557L190.155 41.4904H183.147L182.095 44.2557H178.128L184.441 27.958H188.818L195.132 44.2557H191.159Z" fill="#9F9CA9"/>
<path d="M203.749 27.958H200.271V44.2504H203.749V27.958Z" fill="#9F9CA9"/>
<path d="M210.609 44.2557V27.958H214.087V41.2018H221V44.2557H210.609Z" fill="#9F9CA9"/>
</svg>

<svg width="221" height="67" viewBox="0 0 221 67" fill="none" xmlns="http://www.w3.org/2000/svg">
    <path d="M61.98 40.378a16.056 16.056 0 0 1-6.858 8.79 16.129 16.129 0 0 1-20.701-3.194 16.026 16.026 0 0 1-3.875-10.446c0-3.832 1.375-7.537 3.875-10.447a16.129 16.129 0 0 1 20.701-3.195 16.056 16.056 0 0 1 6.858 8.79l.08.258h2.43c-.131-.714-.2-.976-.2-.976a18.477 18.477 0 0 0-7.828-10.075 18.56 18.56 0 0 0-12.506-2.62 18.532 18.532 0 0 0-11.23 6.084 18.442 18.442 0 0 0-4.605 11.89v.524a18.443 18.443 0 0 0 4.588 11.904 18.558 18.558 0 0 0 23.746 3.49 18.477 18.477 0 0 0 7.835-10.079c.1-.322.18-.65.242-.98H62.06l-.08.282z" fill="#9F9CA9"/>
    <path d="M35.197 44.408a27.948 27.948 0 0 0-11.49 2.183 26.893 26.893 0 0 1-11.185 2.13 26.894 26.894 0 0 1-11.217-2.12L1 46.465v.928a27.911 27.911 0 0 0 11.49 2.183 27.91 27.91 0 0 0 11.49-2.183l-.147-.398.168.393a26.926 26.926 0 0 1 11.196-2.12c3.84-.097 7.656.63 11.19 2.13l.305.11v-.912a27.974 27.974 0 0 0-11.495-2.188z" fill="#9F9CA9"/>
    <path d="M23.696 50.023a26.925 26.925 0 0 1-11.185 2.13c-3.845.1-7.666-.625-11.206-2.125L1 49.897v.929a27.947 27.947 0 0 0 11.49 2.188c3.942.09 7.859-.656 11.49-2.188l-.152-.4.168.394a26.894 26.894 0 0 1 11.2-2.125c3.835-.095 7.645.63 11.175 2.125l.305.116v-.913a27.947 27.947 0 0 0-11.48-2.194 27.985 27.985 0 0 0-11.49 2.183" fill="#9F9CA9"/>
    <path d="M23.696 53.448a26.936 26.936 0 0 1-11.185 2.125 26.893 26.893 0 0 1-11.206-2.12L1 53.322v.929a27.949 27.949 0 0 0 11.49 2.188c3.942.089 7.858-.657 11.49-2.188l-.152-.4.168.395a26.923 26.923 0 0 1 11.2-2.126c3.84-.097 7.657.63 11.19 2.13l.306.11v-.907a27.948 27.948 0 0 0-11.495-2.188 27.978 27.978 0 0 0-11.49 2.183" fill="#9F9CA9"/>
    <path d="M23.696 56.875a26.893 26.893 0 0 1-11.2 2.13 26.894 26.894 0 0 1-11.19-2.125L1 56.749v.928a27.99 27.99 0 0 0 11.49 2.183c3.942.09 7.858-.654 11.49-2.182l-.147-.405.168.394a26.93 26.93 0 0 1 11.196-2.12c3.84-.097 7.656.63 11.19 2.13l.305.11v-.907a27.949 27.949 0 0 0-11.495-2.188 27.987 27.987 0 0 0-11.49 2.183" fill="#9F9CA9"/>
    <path d="M23.696 63.727a26.926 26.926 0 0 1-11.185 2.13c-3.845.1-7.666-.624-11.206-2.124L1 63.602v.928a27.948 27.948 0 0 0 11.495 2.188c3.942.09 7.859-.656 11.49-2.188l-.152-.398.168.393A26.895 26.895 0 0 1 35.197 62.4c3.84-.097 7.656.63 11.19 2.13l.305.11v-.913a27.948 27.948 0 0 0-11.495-2.182 27.979 27.979 0 0 0-11.49 2.182" fill="#9F9CA9"/>
    <path d="M46.613 59.635a24.22 24.22 0 0 1-13.43-4.063 24.124 24.124 0 0 1-8.904-10.82 24.052 24.052 0 0 1-1.376-13.931 24.09 24.09 0 0 1 6.616-12.345 24.194 24.194 0 0 1 12.378-6.599c4.69-.93 9.55-.453 13.967 1.372a24.16 24.16 0 0 1 10.85 8.88 24.066 24.066 0 0 1 4.073 13.395A24.105 24.105 0 0 1 63.7 52.566a24.233 24.233 0 0 1-17.086 7.07zm0-50.635a26.644 26.644 0 0 0-14.775 4.47 26.539 26.539 0 0 0-9.795 11.904 26.459 26.459 0 0 0-1.513 15.325 26.502 26.502 0 0 0 7.278 13.581 26.616 26.616 0 0 0 13.617 7.26 26.66 26.66 0 0 0 15.365-1.51 26.578 26.578 0 0 0 11.935-9.77 26.474 26.474 0 0 0 4.483-14.736 26.52 26.52 0 0 0-7.8-18.746A26.661 26.661 0 0 0 46.614 9" fill="#9F9CA9"/>
    <path d="M46.992 28.467c1.586 0 3.125.532 4.372 1.509a7.061 7.061 0 0 1 2.504 3.88H40.116a7.066 7.066 0 0 1 2.505-3.879 7.099 7.099 0 0 1 4.37-1.51zm9.47 6.532a9.464 9.464 0 0 0-2.578-5.986 9.52 9.52 0 0 0-12.191-1.373 9.477 9.477 0 0 0-3.85 5.262 9.453 9.453 0 0 0 .465 6.499 9.488 9.488 0 0 0 4.562 4.663 9.524 9.524 0 0 0 6.502.623 9.502 9.502 0 0 0 5.37-3.711 8.606 8.606 0 0 0 .899-1.611h-2.71l-.152.22a7.073 7.073 0 0 1-3.346 2.587 7.093 7.093 0 0 1-7.824-2.01 7.048 7.048 0 0 1-1.677-3.877h16.593c-.032-.525-.074-1.275-.074-1.275" fill="#9F9CA9"/>
    <path d="M12.495 63.292A27.947 27.947 0 0 1 1 61.103v-.928l.305.131a26.893 26.893 0 0 0 11.185 2.13 26.933 26.933 0 0 0 11.185-2.125 27.949 27.949 0 0 1 11.522-2.193c3.944-.09 7.861.656 11.495 2.188v.913l-.305-.11a26.893 26.893 0 0 0-11.19-2.136 26.894 26.894 0 0 0-11.18 2.125l-.168-.393.152.398a27.947 27.947 0 0 1-11.49 2.189" fill="#9F9CA9"/>
    <path d="M86.06 44.256V27.958h11.558v3.054h-8.086v3.447h7.918v3.049h-7.918v3.694h8.087v3.054H86.06z" fill="#9F9CA9"/>
    <path d="M102.201 36.117c0-5.011 3.799-8.432 8.697-8.432a7.495 7.495 0 0 1 3.991 1.015 7.47 7.47 0 0 1 2.848 2.967l-2.994 1.47a4.406 4.406 0 0 0-1.595-1.714 4.43 4.43 0 0 0-2.25-.658c-2.962 0-5.119 2.272-5.119 5.352 0 3.08 2.157 5.352 5.119 5.352a4.376 4.376 0 0 0 3.845-2.372l2.989 1.443a7.52 7.52 0 0 1-6.84 4.004c-4.898 0-8.696-3.421-8.696-8.427" fill="#9F9CA9"/>
    <path d="M135.156 36.118c0-3.054-1.957-5.352-4.977-5.352-3.02 0-4.951 2.298-4.951 5.352 0 3.054 1.942 5.352 4.951 5.352 3.009 0 4.977-2.32 4.977-5.352zm-13.5 0c0-4.912 3.599-8.433 8.523-8.433 4.924 0 8.555 3.516 8.555 8.433 0 4.916-3.578 8.427-8.534 8.427-4.956 0-8.523-3.521-8.523-8.427" fill="#9F9CA9"/>
    <path d="M149.829 35.902h-5.876v2.64h5.876v-2.64z" fill="#9F9CA9"/>
    <path d="M170.016 44.256V32.843l-4.604 11.413h-1.52l-4.609-11.413v11.413h-3.477V27.958h4.877l3.966 9.844 3.973-9.844h4.898v16.298h-3.504z" fill="#9F9CA9"/>
    <path d="M186.651 31.426l-2.568 7.01h5.098l-2.53-7.01zm4.508 12.83l-1.004-2.766h-7.008l-1.052 2.766h-3.967l6.313-16.298h4.377l6.314 16.298h-3.973z" fill="#9F9CA9"/>
    <path d="M203.749 27.958h-3.478V44.25h3.478V27.958z" fill="#9F9CA9"/>
    <path d="M210.609 44.256V27.958h3.478v13.244H221v3.054h-10.391z" fill="#9F9CA9"/>
</svg>
